_site/assets/img/01-4n/IB-IM-4-noten-soloritmes.svg

<svg clip-rule="evenodd" fill-rule="evenodd" stroke-linejoin="round" stroke-miterlimit="2" viewBox="0 0 233 38" xmlns="http://www.w3.org/2000/svg"><g fill="none" stroke="#000"><path d="m119.592 9.733v19.881" stroke-width=".78"/><path d="m229.873 9.733v19.881" stroke-width=".78"/><path d="m232.513 9.733v19.881" stroke-width=".78"/><path d="m.146 29.614h232.678" stroke-width=".47"/><path d="m.146 24.644h232.678" stroke-width=".47"/><path d="m.146 19.673h232.678" stroke-width=".47"/><path d="m.146 14.703h232.678" stroke-width=".47"/><path d="m.146 9.733h232.678" stroke-width=".47"/></g><path d="m14.272 28.954.756 3.678c.04.219.059.418.059.617 0 1.948-1.988 3.578-4.135 3.578-.656 0-1.292-.159-1.889-.457 1.531-.159 2.684-1.093 2.684-2.465 0-1.213-.994-2.486-2.266-2.486-1.451 0-2.446 1.114-2.446 2.565 0 2.028 1.651 3.36 3.639 3.36 2.664 0 4.93-1.73 4.93-4.215 0-.556-.874-4.493-.854-4.354 2.127-1.034 3.578-2.863 3.578-4.791 0-2.645-2.127-4.672-4.771-4.672-.04 0-.318.019-.796.059l-.874-4.195c2.962-2.505 4.314-5.169 4.314-8.092 0-2.246-.895-4.632-2.704-7.137-2.048 1.65-3.221 4.95-3.221 8.469 0 1.253.159 2.466.438 3.619-4.533 3.797-6.8 7.296-6.8 10.497 0 3.758 3.877 6.879 8.092 6.879.934 0 1.63-.139 2.266-.457zm-.059-26.124c.656.676.994 1.471.994 2.405 0 1.929-1.372 4.096-4.056 6.482-.139-.577-.179-1.213-.179-1.909 0-3.34 1.233-7.018 2.883-7.018.139 0 .258.02.358.04zm.417 25.309-1.411-6.64c.278-.02.437-.04.497-.04 1.709 0 2.902 1.61 2.902 3.26 0 1.313-.695 2.466-1.988 3.42zm-1.908-6.561 1.431 6.839c-.696.378-1.471.537-2.406.537-3.22 0-6.004-2.406-6.004-5.328 0-2.644 1.968-5.368 5.686-8.152l.835 3.977c-2.067.437-3.817 2.187-3.817 4.155 0 1.67 1.193 2.843 2.982 3.121-1.093-.676-1.63-1.53-1.63-2.544 0-1.372 1.272-2.386 2.923-2.605z" fill-rule="nonzero"/><path d="m54.044 6.005 13.514 3.728v-2.486l-13.514-3.727z"/><path d="m81.071 12.218 13.358-1.243v-2.485l-13.358 1.243z"/><path d="m127.513 32.099h40.54v2.486h-40.54z"/><path d="m28.882 15.48v16.619" fill="none"/><path d="m28.882 15.48v16.619" fill="none" stroke="#000" stroke-width=".47"/><path d="m30.953 17.244c2.048 0 4.573-1.71 4.573-3.46 0-1.053-.935-1.729-2.267-1.729-2.008 0-4.533 1.67-4.533 3.459 0 1.094.975 1.73 2.227 1.73z" fill-rule="nonzero"/><path d="m54.044 16.411v-12.736" fill="none"/><path d="m54.044 16.411v-12.736" fill="none" stroke="#000" stroke-width=".47"/><path d="m49.592 19.729c2.048 0 4.573-1.71 4.573-3.459 0-1.054-.935-1.73-2.267-1.73-2.008 0-4.533 1.67-4.533 3.459 0 1.094.975 1.73 2.227 1.73z" fill-rule="nonzero"/><path d="m67.558 23.867v-16.464" fill="none"/><path d="m67.558 23.867v-16.464" fill="none" stroke="#000" stroke-width=".47"/><path d="m63.105 27.185c2.048 0 4.573-1.71 4.573-3.46 0-1.053-.934-1.729-2.266-1.729-2.008 0-4.533 1.67-4.533 3.459 0 1.093.974 1.73 2.226 1.73z" fill-rule="nonzero"/><path d="m81.071 26.352v-16.464" fill="none"/><path d="m81.071 26.352v-16.464" fill="none" stroke="#000" stroke-width=".47"/><path d="m76.619 29.67c2.048 0 4.572-1.71 4.572-3.46 0-1.053-.934-1.729-2.266-1.729-2.008 0-4.533 1.67-4.533 3.459 0 1.094.974 1.73 2.227 1.73z" fill-rule="nonzero"/><path d="m94.429 23.867v-15.222" fill="none"/><path d="m94.429 23.867v-15.222" fill="none" stroke="#000" stroke-width=".47"/><path d="m89.977 27.185c2.047 0 4.572-1.71 4.572-3.46 0-1.053-.934-1.729-2.266-1.729-2.008 0-4.533 1.67-4.533 3.459 0 1.093.974 1.73 2.227 1.73z" fill-rule="nonzero"/><path d="m106.492 23.586c-.815-1.312-2.485-2.763-2.485-3.817 0-.696.616-1.79 1.869-3.301l-3.539-4.851c-.219.04-.338.12-.338.259 0-.02 1.451 1.73 1.451 2.783 0 1.034-.676 2.167-2.048 3.42 1.551 1.909 2.426 2.823 3.042 3.777-.417-.218-.815-.338-1.193-.338-1.212 0-1.988 1.154-1.988 2.327 0 1.431 2.386 3.161 2.843 3.161.08 0 .139-.04.159-.12-.835-.815-1.252-1.57-1.252-2.266 0-.915.775-1.432 1.789-1.432.537 0 1.114.14 1.69.398z" fill-rule="nonzero"/><path d="m127.513 15.48v18.949" fill="none"/><path d="m127.513 15.48v18.949" fill="none" stroke="#000" stroke-width=".47"/><path d="m129.585 17.244c2.047 0 4.572-1.71 4.572-3.46 0-1.053-.934-1.729-2.266-1.729-2.008 0-4.533 1.67-4.533 3.459 0 1.094.974 1.73 2.227 1.73z" fill-rule="nonzero"/><path d="m141.027 17.965v16.464" fill="none"/><path d="m141.027 17.965v16.464" fill="none" stroke="#000" stroke-width=".47"/><path d="m143.098 19.729c2.048 0 4.573-1.71 4.573-3.459 0-1.054-.935-1.73-2.267-1.73-2.008 0-4.533 1.67-4.533 3.459 0 1.094.974 1.73 2.227 1.73z" fill-rule="nonzero"/><path d="m154.54 15.48v18.949" fill="none"/><path d="m154.54 15.48v18.949" fill="none" stroke="#000" stroke-width=".47"/><path d="m156.611 17.244c2.048 0 4.573-1.71 4.573-3.46 0-1.053-.934-1.729-2.266-1.729-2.009 0-4.533 1.67-4.533 3.459 0 1.094.974 1.73 2.226 1.73z" fill-rule="nonzero"/><path d="m168.053 8.024v26.405" fill="none"/><path d="m168.053 8.024v26.405" fill="none" stroke="#000" stroke-width=".47"/><path d="m170.125 9.788c2.047 0 4.572-1.71 4.572-3.459 0-1.054-.934-1.73-2.266-1.73-2.008 0-4.533 1.67-4.533 3.46 0 1.093.974 1.729 2.227 1.729z" fill-rule="nonzero"/><path d="m186.524 16.369c-1.014.895-1.968 1.332-2.823 1.332-.119 0-.199-.02-.258-.06.218-.397.318-.735.318-1.033 0-.656-.378-.975-1.133-.975-.656 0-1.372.438-1.372 1.014 0 .975.616 1.452 1.849 1.452.676 0 1.531-.179 2.565-.517l-3.182 6.998h.835z" fill-rule="nonzero"/><path d="m194.924 10.509v16.62" fill="none"/><path d="m194.924 10.509v16.62" fill="none" stroke="#000" stroke-width=".47"/><path d="m196.996 12.273c2.048 0 4.573-1.709 4.573-3.459 0-1.054-.935-1.73-2.267-1.73-2.008 0-4.533 1.67-4.533 3.46 0 1.093.974 1.729 2.227 1.729z" fill-rule="nonzero"/><path d="m194.968 27.065c.179 0 .278 0 .258-.02-.02-.039-.02-.099-.02-.159 0-.059 0-.119.02-.178.617-1.551 1.313-2.943 2.187-4.017.716-.874 1.531-1.67 2.267-2.544.775-.915 1.133-1.989 1.133-3.003 0-.536-.06-1.053-.199-1.59-.258-1.014-1.053-2.962-1.531-2.962-.059 0-.079.059-.079.178 0 .1.04.239.119.378.696 1.293 1.034 2.386 1.034 3.241 0 1.213-.457 2.326-1.312 3.28-.179.179-.756.656-1.73 1.432-1.233.994-1.312 1.014-2.147 1.014z" fill-rule="nonzero"/><path d="m213.511 23.586c-.815-1.312-2.485-2.763-2.485-3.817 0-.696.616-1.79 1.869-3.301l-3.539-4.851c-.219.04-.338.12-.338.259 0-.02 1.451 1.73 1.451 2.783 0 1.034-.676 2.167-2.047 3.42 1.55 1.909 2.425 2.823 3.041 3.777-.417-.218-.815-.338-1.192-.338-1.213 0-1.989 1.154-1.989 2.327 0 1.431 2.386 3.161 2.843 3.161.08 0 .14-.04.16-.12-.836-.815-1.253-1.57-1.253-2.266 0-.915.775-1.432 1.789-1.432.537 0 1.114.14 1.69.398z" fill-rule="nonzero"/></svg>

<?xml version="1.0" encoding="UTF-8" standalone="no"?>
<!DOCTYPE svg PUBLIC "-//W3C//DTD SVG 1.1//EN" "http://www.w3.org/Graphics/SVG/1.1/DTD/svg11.dtd">
<svg width="100%" height="100%" viewBox="0 0 233 38" version="1.1" xmlns="http://www.w3.org/2000/svg" xmlns:xlink="http://www.w3.org/1999/xlink" xml:space="preserve" xmlns:serif="http://www.serif.com/" style="fill-rule:evenodd;clip-rule:evenodd;stroke-linejoin:round;stroke-miterlimit:2;">
    <g>
        <path d="M119.592,9.733L119.592,29.614" style="fill:none;stroke:black;stroke-width:0.78px;"/>
        <path d="M229.873,9.733L229.873,29.614" style="fill:none;stroke:black;stroke-width:0.78px;"/>
        <path d="M232.513,9.733L232.513,29.614" style="fill:none;stroke:black;stroke-width:0.78px;"/>
        <path d="M0.146,29.614L232.824,29.614" style="fill:none;stroke:black;stroke-width:0.47px;"/>
        <path d="M0.146,24.644L232.824,24.644" style="fill:none;stroke:black;stroke-width:0.47px;"/>
        <path d="M0.146,19.673L232.824,19.673" style="fill:none;stroke:black;stroke-width:0.47px;"/>
        <path d="M0.146,14.703L232.824,14.703" style="fill:none;stroke:black;stroke-width:0.47px;"/>
        <path d="M0.146,9.733L232.824,9.733" style="fill:none;stroke:black;stroke-width:0.47px;"/>
        <path d="M14.272,28.954L15.028,32.632C15.068,32.851 15.087,33.05 15.087,33.249C15.087,35.197 13.099,36.827 10.952,36.827C10.296,36.827 9.66,36.668 9.063,36.37C10.594,36.211 11.747,35.277 11.747,33.905C11.747,32.692 10.753,31.419 9.481,31.419C8.03,31.419 7.035,32.533 7.035,33.984C7.035,36.012 8.686,37.344 10.674,37.344C13.338,37.344 15.604,35.614 15.604,33.129C15.604,32.573 14.73,28.636 14.75,28.775C16.877,27.741 18.328,25.912 18.328,23.984C18.328,21.339 16.201,19.312 13.557,19.312C13.517,19.312 13.239,19.331 12.761,19.371L11.887,15.176C14.849,12.671 16.201,10.007 16.201,7.084C16.201,4.838 15.306,2.452 13.497,-0.053C11.449,1.597 10.276,4.897 10.276,8.416C10.276,9.669 10.435,10.882 10.714,12.035C6.181,15.832 3.914,19.331 3.914,22.532C3.914,26.29 7.791,29.411 12.006,29.411C12.94,29.411 13.636,29.272 14.272,28.954ZM14.213,2.83C14.869,3.506 15.207,4.301 15.207,5.235C15.207,7.164 13.835,9.331 11.151,11.717C11.012,11.14 10.972,10.504 10.972,9.808C10.972,6.468 12.205,2.79 13.855,2.79C13.994,2.79 14.113,2.81 14.213,2.83ZM14.63,28.139L13.219,21.499C13.497,21.479 13.656,21.459 13.716,21.459C15.425,21.459 16.618,23.069 16.618,24.719C16.618,26.032 15.923,27.185 14.63,28.139ZM12.722,21.578L14.153,28.417C13.457,28.795 12.682,28.954 11.747,28.954C8.527,28.954 5.743,26.548 5.743,23.626C5.743,20.982 7.711,18.258 11.429,15.474L12.264,19.451C10.197,19.888 8.447,21.638 8.447,23.606C8.447,25.276 9.64,26.449 11.429,26.727C10.336,26.051 9.799,25.197 9.799,24.183C9.799,22.811 11.071,21.797 12.722,21.578Z" style="fill-rule:nonzero;"/>
        <path d="M54.044,6.005L67.558,9.733L67.558,7.247L54.044,3.52L54.044,6.005Z"/>
        <path d="M81.071,12.218L94.429,10.975L94.429,8.49L81.071,9.733L81.071,12.218Z"/>
        <rect x="127.513" y="32.099" width="40.54" height="2.486"/>
        <path d="M28.882,15.48L28.882,32.099" style="fill:none;"/>
        <path d="M28.882,15.48L28.882,32.099" style="fill:none;stroke:black;stroke-width:0.47px;"/>
        <path d="M30.953,17.244C33.001,17.244 35.526,15.534 35.526,13.784C35.526,12.731 34.591,12.055 33.259,12.055C31.251,12.055 28.726,13.725 28.726,15.514C28.726,16.608 29.701,17.244 30.953,17.244Z" style="fill-rule:nonzero;"/>
        <path d="M54.044,16.411L54.044,3.675" style="fill:none;"/>
        <path d="M54.044,16.411L54.044,3.675" style="fill:none;stroke:black;stroke-width:0.47px;"/>
        <path d="M49.592,19.729C51.64,19.729 54.165,18.019 54.165,16.27C54.165,15.216 53.23,14.54 51.898,14.54C49.89,14.54 47.365,16.21 47.365,17.999C47.365,19.093 48.34,19.729 49.592,19.729Z" style="fill-rule:nonzero;"/>
        <path d="M67.558,23.867L67.558,7.403" style="fill:none;"/>
        <path d="M67.558,23.867L67.558,7.403" style="fill:none;stroke:black;stroke-width:0.47px;"/>
        <path d="M63.105,27.185C65.153,27.185 67.678,25.475 67.678,23.725C67.678,22.672 66.744,21.996 65.412,21.996C63.404,21.996 60.879,23.666 60.879,25.455C60.879,26.548 61.853,27.185 63.105,27.185Z" style="fill-rule:nonzero;"/>
        <path d="M81.071,26.352L81.071,9.888" style="fill:none;"/>
        <path d="M81.071,26.352L81.071,9.888" style="fill:none;stroke:black;stroke-width:0.47px;"/>
        <path d="M76.619,29.67C78.667,29.67 81.191,27.96 81.191,26.21C81.191,25.157 80.257,24.481 78.925,24.481C76.917,24.481 74.392,26.151 74.392,27.94C74.392,29.034 75.366,29.67 76.619,29.67Z" style="fill-rule:nonzero;"/>
        <path d="M94.429,23.867L94.429,8.645" style="fill:none;"/>
        <path d="M94.429,23.867L94.429,8.645" style="fill:none;stroke:black;stroke-width:0.47px;"/>
        <path d="M89.977,27.185C92.024,27.185 94.549,25.475 94.549,23.725C94.549,22.672 93.615,21.996 92.283,21.996C90.275,21.996 87.75,23.666 87.75,25.455C87.75,26.548 88.724,27.185 89.977,27.185Z" style="fill-rule:nonzero;"/>
        <path d="M106.492,23.586C105.677,22.274 104.007,20.823 104.007,19.769C104.007,19.073 104.623,17.979 105.876,16.468L102.337,11.617C102.118,11.657 101.999,11.737 101.999,11.876C101.999,11.856 103.45,13.606 103.45,14.659C103.45,15.693 102.774,16.826 101.402,18.079C102.953,19.988 103.828,20.902 104.444,21.856C104.027,21.638 103.629,21.518 103.251,21.518C102.039,21.518 101.263,22.672 101.263,23.845C101.263,25.276 103.649,27.006 104.106,27.006C104.186,27.006 104.245,26.966 104.265,26.886C103.43,26.071 103.013,25.316 103.013,24.62C103.013,23.705 103.788,23.188 104.802,23.188C105.339,23.188 105.916,23.328 106.492,23.586Z" style="fill-rule:nonzero;"/>
        <path d="M127.513,15.48L127.513,34.429" style="fill:none;"/>
        <path d="M127.513,15.48L127.513,34.429" style="fill:none;stroke:black;stroke-width:0.47px;"/>
        <path d="M129.585,17.244C131.632,17.244 134.157,15.534 134.157,13.784C134.157,12.731 133.223,12.055 131.891,12.055C129.883,12.055 127.358,13.725 127.358,15.514C127.358,16.608 128.332,17.244 129.585,17.244Z" style="fill-rule:nonzero;"/>
        <path d="M141.027,17.965L141.027,34.429" style="fill:none;"/>
        <path d="M141.027,17.965L141.027,34.429" style="fill:none;stroke:black;stroke-width:0.47px;"/>
        <path d="M143.098,19.729C145.146,19.729 147.671,18.019 147.671,16.27C147.671,15.216 146.736,14.54 145.404,14.54C143.396,14.54 140.871,16.21 140.871,17.999C140.871,19.093 141.845,19.729 143.098,19.729Z" style="fill-rule:nonzero;"/>
        <path d="M154.54,15.48L154.54,34.429" style="fill:none;"/>
        <path d="M154.54,15.48L154.54,34.429" style="fill:none;stroke:black;stroke-width:0.47px;"/>
        <path d="M156.611,17.244C158.659,17.244 161.184,15.534 161.184,13.784C161.184,12.731 160.25,12.055 158.918,12.055C156.909,12.055 154.385,13.725 154.385,15.514C154.385,16.608 155.359,17.244 156.611,17.244Z" style="fill-rule:nonzero;"/>
        <path d="M168.053,8.024L168.053,34.429" style="fill:none;"/>
        <path d="M168.053,8.024L168.053,34.429" style="fill:none;stroke:black;stroke-width:0.47px;"/>
        <path d="M170.125,9.788C172.172,9.788 174.697,8.078 174.697,6.329C174.697,5.275 173.763,4.599 172.431,4.599C170.423,4.599 167.898,6.269 167.898,8.059C167.898,9.152 168.872,9.788 170.125,9.788Z" style="fill-rule:nonzero;"/>
        <path d="M186.524,16.369C185.51,17.264 184.556,17.701 183.701,17.701C183.582,17.701 183.502,17.681 183.443,17.641C183.661,17.244 183.761,16.906 183.761,16.608C183.761,15.952 183.383,15.633 182.628,15.633C181.972,15.633 181.256,16.071 181.256,16.647C181.256,17.622 181.872,18.099 183.105,18.099C183.781,18.099 184.636,17.92 185.67,17.582L182.488,24.58L183.323,24.58L186.524,16.369Z" style="fill-rule:nonzero;"/>
        <path d="M194.924,10.509L194.924,27.129" style="fill:none;"/>
        <path d="M194.924,10.509L194.924,27.129" style="fill:none;stroke:black;stroke-width:0.47px;"/>
        <path d="M196.996,12.273C199.044,12.273 201.569,10.564 201.569,8.814C201.569,7.76 200.634,7.084 199.302,7.084C197.294,7.084 194.769,8.754 194.769,10.544C194.769,11.637 195.743,12.273 196.996,12.273Z" style="fill-rule:nonzero;"/>
        <path d="M194.968,27.065C195.147,27.065 195.246,27.065 195.226,27.045C195.206,27.006 195.206,26.946 195.206,26.886C195.206,26.827 195.206,26.767 195.226,26.708C195.843,25.157 196.539,23.765 197.413,22.691C198.129,21.817 198.944,21.021 199.68,20.147C200.455,19.232 200.813,18.158 200.813,17.144C200.813,16.608 200.753,16.091 200.614,15.554C200.356,14.54 199.561,12.592 199.083,12.592C199.024,12.592 199.004,12.651 199.004,12.77C199.004,12.87 199.044,13.009 199.123,13.148C199.819,14.441 200.157,15.534 200.157,16.389C200.157,17.602 199.7,18.715 198.845,19.669C198.666,19.848 198.089,20.325 197.115,21.101C195.882,22.095 195.803,22.115 194.968,22.115L194.968,27.065Z" style="fill-rule:nonzero;"/>
        <path d="M213.511,23.586C212.696,22.274 211.026,20.823 211.026,19.769C211.026,19.073 211.642,17.979 212.895,16.468L209.356,11.617C209.137,11.657 209.018,11.737 209.018,11.876C209.018,11.856 210.469,13.606 210.469,14.659C210.469,15.693 209.793,16.826 208.422,18.079C209.972,19.988 210.847,20.902 211.463,21.856C211.046,21.638 210.648,21.518 210.271,21.518C209.058,21.518 208.282,22.672 208.282,23.845C208.282,25.276 210.668,27.006 211.125,27.006C211.205,27.006 211.265,26.966 211.285,26.886C210.449,26.071 210.032,25.316 210.032,24.62C210.032,23.705 210.807,23.188 211.821,23.188C212.358,23.188 212.935,23.328 213.511,23.586Z" style="fill-rule:nonzero;"/>
    </g>
</svg>
